X: 1
T: the Earl of Breadalbane's Hermitage
C: Niel Gow
S: handwritten MS (BSFC)
R: reel
Z: 2005 John Chambers <jc:trillian.mit.edu>
M: C|
L: 1/8
K: Edor
|: B | "Em"~E2EG B3^c | "D"dBAd FDAF | "Em"~E2EG B3g | "B7"f^dBd "Em"e3 :|
   f | "Em"gfef  gfeg | "D"feda fadf | "Em"gfef gfeg | "B7"f^dBd "Em"e3 ||
   f | "Em"gfef  gfeg | "D"feda fadf | "Em"gbeg bgeg | "B7"f^dBd "Em"e3 |]
